ui/StatusQ/src/assets/img/icons/wallet.svg

<svg fill="none" height="24" viewBox="0 0 24 24" width="24" xmlns="http://www.w3.org/2000/svg"><g fill="#000"><path d="m6 5.25c-.41421 0-.75.33579-.75.75s.33579.75.75.75h12c.4142 0 .75-.33579.75-.75s-.3358-.75-.75-.75z"/><path clip-rule="evenodd" d="m6 2c-2.20914 0-4 1.79086-4 4v12c0 2.2091 1.79086 4 4 4h12c2.2091 0 4-1.7909 4-4v-12c0-2.20914-1.7909-4-4-4zm0 1.5c-1.38071 0-2.5 1.11929-2.5 2.5s1.11929 2.5 2.5 2.5h12c1.3807 0 2.5-1.11929 2.5-2.5s-1.1193-2.5-2.5-2.5zm14.5 14.5v-7.8357c0-.41946-.504-.67171-.8878-.50248-.4932.21744-1.0386.33818-1.6122.33818h-12c-.5736 0-1.119-.12074-1.61218-.33818-.38383-.16923-.88782.08302-.88782.50248v7.8357c0 1.3807 1.11929 2.5 2.5 2.5h12c1.3807 0 2.5-1.1193 2.5-2.5z" fill-rule="evenodd"/></g></svg>

<svg width="24" height="24" viewBox="0 0 24 24" fill="none" xmlns="http://www.w3.org/2000/svg">
<path d="M6 5.25C5.58579 5.25 5.25 5.58579 5.25 6C5.25 6.41421 5.58579 6.75 6 6.75H18C18.4142 6.75 18.75 6.41421 18.75 6C18.75 5.58579 18.4142 5.25 18 5.25H6Z" fill="black"/>
<path fill-rule="evenodd" clip-rule="evenodd" d="M6 2C3.79086 2 2 3.79086 2 6V18C2 20.2091 3.79086 22 6 22H18C20.2091 22 22 20.2091 22 18V6C22 3.79086 20.2091 2 18 2H6ZM6 3.5C4.61929 3.5 3.5 4.61929 3.5 6C3.5 7.38071 4.61929 8.5 6 8.5H18C19.3807 8.5 20.5 7.38071 20.5 6C20.5 4.61929 19.3807 3.5 18 3.5H6ZM20.5 18V10.1643C20.5 9.74484 19.996 9.49259 19.6122 9.66182C19.119 9.87926 18.5736 10 18 10H6C5.4264 10 4.881 9.87926 4.38782 9.66182C4.00399 9.49259 3.5 9.74484 3.5 10.1643V18C3.5 19.3807 4.61929 20.5 6 20.5H18C19.3807 20.5 20.5 19.3807 20.5 18Z" fill="black"/>
</svg>
